img/logo-02.svg

<svg width="160" height="20" viewBox="0 0 160 20" fill="none" xmlns="http://www.w3.org/2000/svg">
<path d="M88.1023 0.393738H79.4009V0.603697L79.9512 0.761205C79.9642 0.761205 79.9774 0.761203 79.9903 0.765512C80.0034 0.765512 80.0168 0.774132 80.0298 0.787357C80.3661 0.887953 80.6588 1.04977 80.9167 1.27295C81.17 1.50044 81.3708 1.76716 81.5151 2.07772C81.6593 2.38381 81.7291 2.71636 81.7335 3.0706V19.6031H88.1023C88.1373 19.6074 88.312 19.6074 88.6265 19.6031C88.9411 19.5987 89.3517 19.5682 89.8627 19.5157C90.3695 19.4633 90.9373 19.3626 91.5662 19.2138C92.1909 19.0651 92.8375 18.8508 93.497 18.571C94.1609 18.2866 94.8031 17.9148 95.419 17.4555C96.0393 16.9921 96.5985 16.4234 97.0921 15.7411C97.5857 15.0588 97.979 14.2409 98.2715 13.2962C98.56 12.3516 98.7128 11.2495 98.7171 9.99865C98.7128 8.72136 98.5643 7.60619 98.2715 6.64837C97.9833 5.69071 97.5946 4.8684 97.101 4.18162C96.6073 3.49929 96.0525 2.92632 95.4366 2.46718C94.8163 2.01234 94.1785 1.64487 93.5189 1.36924C92.855 1.0936 92.2128 0.883791 91.5882 0.743819C90.9636 0.608452 90.3956 0.512016 89.8846 0.468182C89.3737 0.420187 88.9586 0.393887 88.6397 0.393887C88.3252 0.393887 88.1461 0.393887 88.1025 0.393887L88.1023 0.393738ZM88.1023 18.0284H85.1406V1.96836H88.1023C88.1111 1.9639 88.229 1.97267 88.4692 1.99035C88.7053 2.01234 89.0196 2.06479 89.4127 2.15662C89.8014 2.24399 90.234 2.39273 90.7013 2.59823C91.1687 2.80819 91.6406 3.0969 92.1079 3.46437C92.5752 3.83599 93.0078 4.31282 93.3964 4.89456C93.7896 5.47614 94.1041 6.18462 94.3399 7.02446C94.5802 7.86415 94.7026 8.85718 94.7069 9.99865C94.7026 11.1532 94.5802 12.1502 94.3399 12.9945C94.1041 13.8431 93.7896 14.5559 93.3964 15.1377C93.0078 15.7194 92.5752 16.1962 92.1079 16.5634C91.6406 16.9309 91.1687 17.2196 90.7013 17.4208C90.234 17.6264 89.8014 17.7707 89.4127 17.8539C89.0196 17.9413 88.7053 17.9937 88.4692 18.0114C88.229 18.0287 88.1111 18.0333 88.1023 18.0286V18.0284Z" fill="white"/>
<path d="M110.722 0C109.695 0 108.721 0.131354 107.795 0.393766C106.873 0.651868 106.026 1.0498 105.257 1.57477C104.488 2.10405 103.82 2.76438 103.256 3.56039C102.688 4.35624 102.252 5.2879 101.942 6.35508C101.631 7.42226 101.474 8.62941 101.47 9.97208C101.474 11.363 101.631 12.5963 101.942 13.6811C102.252 14.7656 102.688 15.7061 103.256 16.4976C103.82 17.2893 104.488 17.9409 105.257 18.4526C106.026 18.9688 106.873 19.3494 107.795 19.5985C108.721 19.8479 109.695 19.9703 110.722 19.9703C111.748 19.9703 112.722 19.8479 113.648 19.5985C114.57 19.3494 115.418 18.9688 116.186 18.4526C116.955 17.941 117.623 17.2894 118.191 16.4976C118.755 15.7061 119.192 14.7656 119.502 13.6811C119.812 12.5963 119.969 11.363 119.974 9.97208C119.969 8.61619 119.812 7.40488 119.502 6.33324C119.192 5.26175 118.755 4.33009 118.191 3.53854C117.623 2.74254 116.955 2.08205 116.186 1.56154C115.418 1.03672 114.57 0.64756 113.648 0.385148C112.722 0.127046 111.748 0.000148736 110.722 0.000148736V0ZM110.722 18.6844C109.878 18.6889 109.114 18.5314 108.428 18.2165C107.742 17.9016 107.153 17.3985 106.659 16.7119C106.166 16.0208 105.786 15.1242 105.519 14.0133C105.253 12.9023 105.117 11.5552 105.113 9.97193C105.122 7.92955 105.357 6.27187 105.82 4.99904C106.288 3.72205 106.939 2.78608 107.778 2.19127C108.616 1.59661 109.595 1.30329 110.722 1.3122C111.569 1.3079 112.338 1.46971 113.028 1.7978C113.718 2.12574 114.312 2.63303 114.806 3.32844C115.304 4.02399 115.684 4.92059 115.95 6.01808C116.221 7.11602 116.357 8.43253 116.357 9.97193C116.357 11.5552 116.221 12.9023 115.95 14.0133C115.684 15.1242 115.304 16.0208 114.806 16.7119C114.312 17.3985 113.718 17.9016 113.028 18.2165C112.338 18.5315 111.569 18.6889 110.722 18.6844V18.6844Z" fill="white"/>
<path d="M131.585 0C130.558 0 129.584 0.131354 128.658 0.393766C127.737 0.651868 126.889 1.0498 126.12 1.57477C125.351 2.10405 124.683 2.76438 124.12 3.56039C123.552 4.35624 123.115 5.2879 122.805 6.35508C122.494 7.42226 122.337 8.62941 122.333 9.97208C122.337 11.363 122.495 12.5963 122.805 13.6811C123.115 14.7656 123.552 15.7061 124.12 16.4976C124.683 17.2893 125.351 17.9409 126.12 18.4526C126.889 18.9688 127.736 19.3494 128.658 19.5985C129.584 19.8479 130.558 19.9703 131.585 19.9703C132.611 19.9703 133.586 19.8479 134.512 19.5985C135.433 19.3494 136.281 18.9688 137.05 18.4526C137.818 17.941 138.487 17.2894 139.055 16.4976C139.618 15.7061 140.055 14.7656 140.365 13.6811C140.675 12.5963 140.832 11.363 140.837 9.97208C140.832 8.61619 140.675 7.40488 140.365 6.33324C140.055 5.26175 139.618 4.33009 139.055 3.53854C138.487 2.74254 137.818 2.08205 137.05 1.56154C136.281 1.03672 135.433 0.64756 134.512 0.385148C133.585 0.127046 132.611 0.000148736 131.585 0.000148736V0ZM131.585 18.6844C130.742 18.6889 129.977 18.5314 129.292 18.2165C128.606 17.9016 128.016 17.3985 127.522 16.7119C127.029 16.0208 126.649 15.1242 126.382 14.0133C126.116 12.9023 125.98 11.5552 125.976 9.97193C125.985 7.92955 126.221 6.27187 126.684 4.99904C127.151 3.72205 127.802 2.78608 128.641 2.19127C129.479 1.59661 130.458 1.30329 131.585 1.3122C132.432 1.3079 133.201 1.46971 133.891 1.7978C134.581 2.12574 135.176 2.63303 135.669 3.32844C136.167 4.02399 136.547 4.92059 136.814 6.01808C137.084 7.11602 137.22 8.43253 137.22 9.97193C137.22 11.5552 137.084 12.9023 136.814 14.0133C136.547 15.1242 136.167 16.0208 135.669 16.7119C135.176 17.3985 134.581 17.9016 133.891 18.2165C133.201 18.5315 132.432 18.6889 131.585 18.6844Z" fill="white"/>
<path d="M154.208 11.5728L151.115 11.0217C151.548 11.0086 151.954 10.9737 152.33 10.9124C152.701 10.8554 153.011 10.7944 153.251 10.7375C153.492 10.6764 153.627 10.6412 153.658 10.6281C154.173 10.4835 154.654 10.2912 155.108 10.0376C155.558 9.78842 155.955 9.46909 156.3 9.0841C156.641 8.69939 156.912 8.23564 157.109 7.68898C157.301 7.14677 157.401 6.50367 157.406 5.7732C157.401 4.88537 157.253 4.1332 156.96 3.51655C156.672 2.89975 156.278 2.39246 155.78 1.99884C155.287 1.60507 154.732 1.29452 154.112 1.07609C153.491 0.853055 152.845 0.695549 152.181 0.599262C151.513 0.503124 150.862 0.441755 150.228 0.419912C149.595 0.398069 149.019 0.389304 148.494 0.393613H142.833V0.629871L143.383 0.761078C143.397 0.761078 143.41 0.761076 143.423 0.765386C143.436 0.765386 143.449 0.774005 143.462 0.78723C143.798 0.887826 144.091 1.04964 144.349 1.27282C144.602 1.50032 144.803 1.76704 144.947 2.07314C145.092 2.38369 145.161 2.71609 145.166 3.07033V19.6028H148.573V11.1266H150.041L156.121 19.6028H160L154.208 11.5728H154.208ZM150.355 9.76197H148.573V1.73212L150.355 1.70567C150.36 1.70136 150.451 1.70567 150.626 1.7232C150.801 1.73628 151.028 1.77997 151.308 1.8501C151.583 1.91994 151.88 2.03807 152.19 2.20434C152.5 2.37061 152.797 2.60241 153.072 2.89974C153.352 3.19722 153.579 3.58207 153.754 4.04999C153.928 4.5179 154.02 5.09533 154.025 5.7732C154.02 6.45107 153.955 7.02403 153.824 7.48779C153.697 7.9557 153.518 8.33208 153.299 8.62495C153.077 8.91366 152.832 9.13655 152.557 9.28975L152.505 9.31605C152.247 9.46048 151.985 9.56538 151.723 9.63106C151.456 9.69228 151.203 9.73151 150.967 9.74488C150.727 9.75781 150.526 9.76672 150.355 9.76212L150.355 9.76197Z" fill="white"/>
<path d="M1.72966 19.603L3.32858 16.139H12.4755L14.1268 19.603H17.9009L8.83247 0.393738L0 19.603H1.72966V19.603ZM7.83653 6.29829L11.8727 14.827H3.9314L7.83653 6.29829V6.29829Z" fill="white"/>
<path d="M56.0899 0.393738V13.4097C56.0856 14.1489 55.9764 14.7962 55.7623 15.3429C55.5527 15.8895 55.2688 16.3534 54.9147 16.7337C54.5609 17.1142 54.168 17.4249 53.7397 17.6698C53.3072 17.9104 52.8749 18.0983 52.438 18.2295C51.9968 18.3652 51.5861 18.4572 51.2061 18.5052C50.826 18.5576 50.5028 18.5841 50.2452 18.5796C50.2366 18.5841 50.1229 18.5796 49.9044 18.5666C49.6817 18.5492 49.3979 18.5009 49.0483 18.4178C48.6988 18.3346 48.3319 18.1903 47.9388 17.9847C47.5455 17.7792 47.1785 17.4861 46.8292 17.1056C46.4797 16.7295 46.1959 16.2353 45.973 15.6317C45.7547 15.0282 45.641 14.2889 45.6323 13.4099V0.393887H39.8926V0.630146L40.4429 0.761353C40.4559 0.761353 40.4691 0.761352 40.482 0.765661C40.4953 0.765661 40.5085 0.774279 40.5215 0.787504C40.8666 0.8881 41.1637 1.04992 41.417 1.2731C41.6703 1.50059 41.8713 1.76731 42.0111 2.07341C42.1507 2.38397 42.2251 2.71636 42.2251 3.0706V13.4099C42.2294 14.276 42.343 15.0371 42.557 15.6885C42.7753 16.3402 43.068 16.9046 43.4393 17.3725C43.8062 17.8404 44.2211 18.234 44.6798 18.549C45.1385 18.8639 45.6148 19.1175 46.1039 19.3101C46.5932 19.5025 47.0694 19.6468 47.528 19.7474C47.9867 19.8437 48.4017 19.9094 48.773 19.9443C49.1398 19.9794 49.4325 19.9967 49.6509 19.9967C49.8649 20.001 49.9786 20.001 49.9828 19.9967C51.0224 19.9926 51.9266 19.8917 52.7042 19.6951C53.4774 19.4982 54.1412 19.2315 54.6917 18.8992C55.242 18.5624 55.7008 18.1906 56.0632 17.7752C56.4301 17.364 56.7186 16.9353 56.9326 16.498C57.1507 16.0606 57.3081 15.6363 57.413 15.234C57.5179 14.8273 57.5878 14.4643 57.6184 14.1449C57.6534 13.8301 57.6663 13.5852 57.662 13.4102V0.394184H56.0895L56.0899 0.393738Z" fill="white"/>
<path d="M61.027 19.603L62.6259 16.139H71.7729L73.4242 19.603H77.1983L68.1298 0.393738L59.2974 19.603H61.027V19.603ZM67.1339 6.29829L71.1701 14.827H63.2288L67.1339 6.29829V6.29829Z" fill="white"/>
<path d="M28.182 0C27.1555 0 26.1814 0.131354 25.2553 0.393766C24.3338 0.651868 23.4862 1.0498 22.7173 1.57477C21.9486 2.10405 21.2803 2.76438 20.7168 3.56039C20.1489 4.35624 19.7121 5.2879 19.402 6.35508C19.0916 7.42226 18.9345 8.62941 18.9302 9.97208C18.9345 11.363 19.0918 12.5963 19.402 13.6811C19.7121 14.7656 20.1489 15.7061 20.7168 16.4976C21.2803 17.2893 21.9486 17.9409 22.7173 18.4526C23.4862 18.9688 24.3336 19.3494 25.2553 19.5985C26.1815 19.8479 27.1555 19.9703 28.182 19.9703C29.2086 19.9703 30.1827 19.8479 31.1087 19.5985C32.0303 19.3494 32.8779 18.9688 33.6468 18.4526C33.6834 18.4282 33.7199 18.4036 33.756 18.3785C33.9498 18.648 34.1641 18.8896 34.3992 19.1039C34.7055 19.3828 35.0502 19.6012 35.4333 19.7593C35.8164 19.9168 36.243 19.9742 36.7127 19.9308C37.7022 19.8393 39.0343 19.0929 39.6566 17.6025C39.1588 17.9123 38.701 18.0863 38.2834 18.1251C37.9704 18.1539 37.6536 18.0955 37.3327 17.9493C37.0121 17.8033 36.7051 17.6122 36.4114 17.3758C36.1177 17.1394 35.8516 16.8741 35.6142 16.5801L35.6027 16.5659L35.652 16.4977C36.2155 15.7062 36.6523 14.7658 36.9626 13.6812C37.2727 12.5965 37.4299 11.3632 37.4342 9.97223C37.4299 8.61634 37.2726 7.40503 36.9626 6.33339C36.6523 5.2619 36.2155 4.33023 35.652 3.53869C35.0841 2.74269 34.4158 2.0822 33.6471 1.56169C32.8782 1.03687 32.0308 0.647708 31.109 0.385297C30.1828 0.127195 29.2089 0.000297472 28.1823 0.000297472L28.182 0ZM28.182 18.6844C27.339 18.6889 26.5745 18.5314 25.8887 18.2165C25.2028 17.9016 24.6132 17.3985 24.1196 16.7119C23.626 16.0208 23.2459 15.1242 22.9794 14.0133C22.713 12.9023 22.5775 11.5552 22.5732 9.97193C22.582 7.92955 22.8178 6.27187 23.2808 4.99904C23.7481 3.72205 24.3991 2.78608 25.2378 2.19127C26.0765 1.59661 27.0551 1.30329 28.182 1.3122C29.0296 1.3079 29.7983 1.46971 30.4886 1.7978C31.1786 2.12574 31.7727 2.63303 32.2663 3.32844C32.7643 4.02399 33.1441 4.92059 33.4108 6.01808C33.6816 7.11602 33.817 8.43253 33.817 9.97193C33.817 11.5552 33.6816 12.9023 33.4108 14.0133C33.1443 15.1242 32.7643 16.0208 32.2663 16.7119C31.7727 17.3985 31.1786 17.9016 30.4886 18.2165C29.7983 18.5315 29.0294 18.6889 28.182 18.6844V18.6844Z" fill="white"/>
</svg>

<svg width="160" height="20" fill="none" xmlns="http://www.w3.org/2000/svg"><path d="M88.102.394h-8.701v.21l.55.157c.013 0 .026 0 .04.005.012 0 .026.008.039.021.336.101.629.263.887.486.253.227.454.494.598.805.144.306.214.638.219.993v16.532h6.368c.035.004.21.004.524 0 .315-.004.726-.035 1.237-.087a13.519 13.519 0 001.703-.302 12.185 12.185 0 001.931-.643 9.418 9.418 0 001.922-1.116 7.896 7.896 0 001.673-1.714c.494-.682.887-1.5 1.18-2.445.288-.944.44-2.046.445-3.297-.004-1.278-.153-2.393-.445-3.35-.289-.958-.677-1.78-1.171-2.467a7.869 7.869 0 00-1.664-1.715 9.328 9.328 0 00-1.918-1.098 11.75 11.75 0 00-1.93-.625 13.72 13.72 0 00-1.704-.276A14.01 14.01 0 0088.64.394h-.537zm0 17.634h-2.961V1.968h2.961c.01-.004.127.005.367.022.236.022.55.075.944.167.388.087.821.236 1.288.441.468.21.94.499 1.407.866.467.372.9.849 1.288 1.43.394.582.708 1.29.944 2.13.24.84.363 1.833.367 2.975-.004 1.154-.127 2.151-.367 2.995-.236.85-.55 1.562-.944 2.144a6.115 6.115 0 01-1.288 1.425c-.467.368-.94.657-1.407.858-.467.205-.9.35-1.288.433a6.94 6.94 0 01-.944.157 3.28 3.28 0 01-.367.018zM110.722 0c-1.027 0-2.001.131-2.927.394a8.58 8.58 0 00-2.538 1.18 7.999 7.999 0 00-2.001 1.986c-.568.796-1.004 1.728-1.314 2.795-.311 1.067-.468 2.274-.472 3.617.004 1.391.161 2.624.472 3.71.31 1.084.746 2.024 1.314 2.816a7.657 7.657 0 002.001 1.955 8.493 8.493 0 002.538 1.146c.926.249 1.9.371 2.927.371 1.026 0 2-.122 2.926-.371a8.51 8.51 0 002.538-1.146 7.73 7.73 0 002.005-1.955c.564-.792 1.001-1.732 1.311-2.817.31-1.085.467-2.318.472-3.709-.005-1.356-.162-2.567-.472-3.639-.31-1.071-.747-2.003-1.311-2.794a7.897 7.897 0 00-2.005-1.977 8.67 8.67 0 00-2.538-1.177c-.926-.258-1.9-.385-2.926-.385zm0 18.684c-.844.005-1.608-.153-2.294-.468-.686-.314-1.275-.818-1.769-1.504-.493-.691-.873-1.588-1.14-2.699-.266-1.11-.402-2.458-.406-4.041.009-2.042.244-3.7.707-4.973.468-1.277 1.119-2.213 1.958-2.808.838-.594 1.817-.888 2.944-.879.847-.004 1.616.158 2.306.486.69.328 1.284.835 1.778 1.53.498.696.878 1.593 1.144 2.69.271 1.098.407 2.415.407 3.954 0 1.583-.136 2.93-.407 4.041-.266 1.111-.646 2.008-1.144 2.699-.494.686-1.088 1.19-1.778 1.505-.69.315-1.459.472-2.306.467zM131.585 0c-1.027 0-2.001.131-2.927.394a8.59 8.59 0 00-2.538 1.18 7.979 7.979 0 00-2 1.986c-.568.796-1.005 1.728-1.315 2.795-.311 1.067-.468 2.274-.472 3.617.004 1.391.162 2.624.472 3.71.31 1.084.747 2.024 1.315 2.816a7.638 7.638 0 002 1.955 8.493 8.493 0 002.538 1.146c.926.249 1.9.371 2.927.371 1.026 0 2.001-.122 2.927-.371a8.504 8.504 0 002.538-1.146 7.745 7.745 0 002.005-1.955c.563-.792 1-1.732 1.31-2.817.31-1.085.467-2.318.472-3.709-.005-1.356-.162-2.567-.472-3.639-.31-1.071-.747-2.003-1.31-2.794a7.914 7.914 0 00-2.005-1.977 8.693 8.693 0 00-2.538-1.177A10.855 10.855 0 00131.585 0zm0 18.684c-.843.005-1.608-.153-2.293-.468-.686-.314-1.276-.818-1.77-1.504-.493-.691-.873-1.588-1.14-2.699-.266-1.11-.402-2.458-.406-4.041.009-2.042.245-3.7.708-4.973.467-1.277 1.118-2.213 1.957-2.808.838-.594 1.817-.888 2.944-.879.847-.004 1.616.158 2.306.486.69.328 1.285.835 1.778 1.53.498.696.878 1.593 1.145 2.69.27 1.098.406 2.415.406 3.954 0 1.583-.136 2.93-.406 4.041-.267 1.111-.647 2.008-1.145 2.699-.493.686-1.088 1.19-1.778 1.505-.69.315-1.459.472-2.306.467zm22.623-7.111l-3.093-.551a9.34 9.34 0 001.215-.11c.371-.057.681-.118.921-.175a5.66 5.66 0 00.407-.109 6.614 6.614 0 001.45-.59c.45-.25.847-.569 1.192-.954.341-.385.612-.848.809-1.395.192-.542.292-1.185.297-1.916-.005-.888-.153-1.64-.446-2.256a4.124 4.124 0 00-1.18-1.518 5.676 5.676 0 00-1.668-.923A9.913 9.913 0 00152.181.6a18.099 18.099 0 00-1.953-.18 40.814 40.814 0 00-1.734-.025h-5.661V.63l.55.131c.014 0 .027 0 .04.004.013 0 .026.009.039.022.336.1.629.263.887.486.253.227.454.494.598.8.145.31.214.643.219.997v16.533h3.407v-8.476h1.468l6.08 8.476H160l-5.792-8.03zm-3.853-1.811h-1.782v-8.03l1.782-.026a4.291 4.291 0 01.953.144c.275.07.572.188.882.354.31.167.607.398.882.696.28.297.507.682.682 1.15.174.468.266 1.045.271 1.723-.005.678-.07 1.251-.201 1.715-.127.468-.306.844-.525 1.137a2.45 2.45 0 01-.742.665l-.052.026a3.19 3.19 0 01-.782.315c-.267.061-.52.1-.756.114-.24.013-.441.022-.612.017zM1.73 19.603l1.599-3.464h9.146l1.652 3.464H17.9L8.832.393 0 19.604h1.73zM7.837 6.298l4.036 8.529H3.93l3.906-8.529zM56.09.394V13.41c-.004.739-.114 1.386-.328 1.933a4.247 4.247 0 01-.847 1.39 4.966 4.966 0 01-1.175.937 6.66 6.66 0 01-1.302.56 7.353 7.353 0 01-1.232.275c-.38.053-.703.08-.96.075-.01.004-.123 0-.342-.013a5.78 5.78 0 01-.856-.15 4.822 4.822 0 01-1.11-.432 4.086 4.086 0 01-1.109-.88c-.35-.375-.633-.87-.856-1.473-.218-.604-.332-1.343-.34-2.222V.394h-5.74V.63l.55.131c.013 0 .026 0 .039.005.013 0 .026.008.04.022.345.1.642.262.895.485.253.228.454.494.594.8.14.311.214.643.214.998V13.41c.004.866.118 1.627.332 2.278.218.652.511 1.217.882 1.684.367.468.782.862 1.24 1.177.46.315.936.569 1.425.761.49.193.965.337 1.424.437a11.242 11.242 0 002.123.25c.214.004.328.004.332 0 1.04-.004 1.944-.105 2.721-.302.773-.197 1.437-.463 1.988-.796.55-.337 1.009-.708 1.371-1.124a5.66 5.66 0 00.87-1.277c.218-.437.375-.862.48-1.264.105-.407.175-.77.205-1.09.035-.314.048-.559.044-.734V.394H56.09zm4.937 19.209l1.599-3.464h9.147l1.651 3.464h3.774L68.13.393l-8.833 19.21h1.73zm6.107-13.305l4.036 8.529h-7.94l3.905-8.529zM28.182 0c-1.026 0-2 .131-2.927.394a8.584 8.584 0 00-2.538 1.18 7.994 7.994 0 00-2 1.986c-.568.796-1.005 1.728-1.315 2.795-.31 1.067-.468 2.274-.472 3.617.005 1.391.162 2.624.472 3.71.31 1.084.747 2.024 1.315 2.816a7.652 7.652 0 002 1.955 8.495 8.495 0 002.538 1.146c.927.249 1.9.371 2.927.371 1.027 0 2-.122 2.927-.371a8.497 8.497 0 002.647-1.22c.194.269.408.51.643.725.306.279.651.497 1.034.655.383.158.81.215 1.28.172.99-.092 2.321-.838 2.944-2.329-.498.31-.956.484-1.374.523-.313.029-.63-.03-.95-.176a4.332 4.332 0 01-.922-.573 5.266 5.266 0 01-.797-.796l-.011-.014.049-.068c.563-.792 1-1.732 1.31-2.817.31-1.084.468-2.318.472-3.709-.004-1.356-.161-2.567-.471-3.639-.31-1.071-.748-2.003-1.311-2.794a7.9 7.9 0 00-2.005-1.977A8.683 8.683 0 0031.11.385 10.861 10.861 0 0028.182 0zm0 18.684c-.843.005-1.607-.153-2.293-.468-.686-.314-1.276-.818-1.77-1.504-.493-.691-.873-1.588-1.14-2.699-.266-1.11-.401-2.458-.406-4.041.009-2.042.245-3.7.708-4.973.467-1.277 1.118-2.213 1.957-2.808.838-.594 1.817-.888 2.944-.879.848-.004 1.616.158 2.307.486.69.328 1.284.835 1.777 1.53.498.696.878 1.593 1.145 2.69.27 1.098.406 2.415.406 3.954 0 1.583-.135 2.93-.406 4.041-.267 1.111-.647 2.008-1.145 2.699-.493.686-1.087 1.19-1.777 1.505-.69.315-1.46.472-2.307.467z" fill="#fff"/></svg>
